X: 1
T: Iron Road, The
M: 4/4
L: 1/8
R: reel
K: Edor
E3 F GE ~E2|ABBc dBcB|AF F/F/F DEFA|BGAF GFED|E2 B,E GFEA|
[1BAFB dBcB|AF ~F2 BFAF|DEFD E2 ED:|
[2~B3 c dBcB|AF ~F2 dFAF|DEFD E2 EA||
|:~B3 e e2 ef|fggf fedB|AF F/F/F D3 G,|A,DDE FABA|
~B3 e e2 ef|fggf ~f2 ga|bgaf feeA|1BGAF E2 EA:|2BGAF E2 ED||
